src/assets/highQualityCode.svg

<svg xmlns="http://www.w3.org/2000/svg" width="56" height="73" fill="none" viewBox="0 0 56 73"><path fill="#2ECC82" d="M50.1686 72.6223C35.539 72.6223 20.9047 72.6223 6.27507 72.6223C6.1938 72.5791 6.1173 72.5263 6.03125 72.5023C2.78979 71.6809 0.968262 69.3512 0.968262 66.0272C0.968262 46.4146 0.968262 26.8068 0.968262 7.19417C0.968262 3.46667 3.69338 0.728697 7.40337 0.728697C17.1182 0.723894 26.833 0.728697 36.5478 0.728697C36.7916 0.728697 37.0355 0.728697 37.308 0.728697C37.308 1.09376 37.308 1.35314 37.308 1.60773C37.308 6.5457 37.308 11.4837 37.308 16.4217C37.308 18.1797 38.116 18.9819 39.8753 18.9819C44.814 18.9819 49.7527 18.9819 54.6914 18.9819C54.94 18.9819 55.1838 18.9819 55.4802 18.9819C55.4802 19.2317 55.4802 19.3902 55.4802 19.5487C55.4802 35.1792 55.485 50.8145 55.4754 66.4451C55.4754 69.111 53.6348 71.5415 51.0913 72.3341C50.7806 72.4302 50.4746 72.5263 50.1686 72.6223ZM14.1636 42.298C14.3883 42.0194 14.5604 41.8032 14.7373 41.5871C16.4823 39.4831 18.2369 37.3936 19.9628 35.2753C20.7851 34.2666 20.6752 33.0369 19.7668 32.2683C18.8345 31.4806 17.5963 31.6151 16.7405 32.6334C14.4791 35.3378 12.2273 38.0517 9.98506 40.7705C9.11493 41.8224 9.1245 42.7399 9.98028 43.8015C10.64 44.6181 11.3189 45.4202 11.993 46.2272C13.5899 48.1486 15.1771 50.0796 16.7835 51.9914C17.3524 52.6687 18.0648 52.9713 18.9588 52.7167C19.8385 52.4669 20.331 51.8617 20.4839 50.9875C20.6178 50.2045 20.2258 49.5993 19.7477 49.0276C17.907 46.8084 16.0616 44.5796 14.1636 42.298ZM42.2706 42.2884C42.065 42.543 41.8929 42.7591 41.716 42.9705C39.9853 45.0552 38.2498 47.1351 36.5287 49.2246C35.6586 50.2814 35.7207 51.4918 36.6386 52.2892C37.5901 53.1106 38.8187 52.9761 39.708 51.9145C41.955 49.2294 44.1925 46.5347 46.4252 43.8303C47.3144 42.7495 47.3144 41.8176 46.4204 40.7416C44.2068 38.0565 41.9837 35.381 39.751 32.7102C38.8522 31.6343 37.6426 31.4613 36.6817 32.2443C35.7016 33.0465 35.6538 34.2906 36.5717 35.4098C37.3558 36.3657 38.1542 37.312 38.9431 38.2679C40.0474 39.5984 41.147 40.9242 42.2706 42.2884ZM33.1151 33.9736C33.1008 33.7958 33.1008 33.7046 33.0864 33.6133C32.9334 32.6382 32.1924 31.8985 31.2362 31.7736C30.3278 31.6583 29.3812 32.2395 29.0561 33.181C28.4537 34.9198 27.8848 36.6731 27.3063 38.4216C26.0394 42.2259 24.7724 46.0303 23.515 49.8394C23.0513 51.2421 23.6919 52.4669 25.0306 52.7696C26.0967 53.0145 27.0768 52.3661 27.4928 51.1076C29.2999 45.6652 31.1024 40.2229 32.9048 34.7757C33.0004 34.4875 33.0625 34.1897 33.1151 33.9736Z"/><path fill="#000" d="M53.9884 14.7355C49.9103 14.7355 45.7509 14.7355 41.5437 14.7355C41.5437 10.5133 41.5437 6.31985 41.5437 2.2417C45.6648 6.37749 49.8338 10.5661 53.9884 14.7355Z"/></svg>

<svg xmlns="http://www.w3.org/2000/svg" width="56" height="73" fill="none"><path fill="#2ECC82" d="M50.169 72.622H6.275c-.081-.043-.158-.096-.244-.12-3.241-.821-5.063-3.15-5.063-6.475V7.194C.968 3.467 3.693.73 7.403.73c9.715-.005 19.43 0 29.145 0h.76v15.693c0 1.758.808 2.56 2.567 2.56h15.606v.567c0 15.63.004 31.266-.006 46.896 0 2.666-1.84 5.097-4.384 5.89-.31.095-.616.191-.922.287ZM14.164 42.298c.224-.279.396-.495.573-.71 1.745-2.105 3.5-4.194 5.226-6.313.822-1.008.712-2.238-.196-3.007-.933-.787-2.17-.653-3.026.365a1557.35 1557.35 0 0 0-6.756 8.137c-.87 1.052-.86 1.97-.005 3.031.66.817 1.339 1.62 2.013 2.426 1.597 1.922 3.184 3.853 4.79 5.764.57.678 1.282.98 2.176.726.88-.25 1.372-.855 1.525-1.73.134-.782-.258-1.388-.736-1.96-1.841-2.219-3.686-4.447-5.584-6.729Zm28.107-.01c-.206.255-.378.471-.555.683-1.73 2.084-3.466 4.164-5.187 6.254-.87 1.056-.808 2.267.11 3.064.951.822 2.18.687 3.069-.375 2.247-2.685 4.485-5.38 6.717-8.084.89-1.08.89-2.012-.005-3.088a1493.164 1493.164 0 0 0-6.669-8.032c-.899-1.076-2.108-1.249-3.07-.466-.98.803-1.027 2.047-.11 3.166.785.956 1.583 1.902 2.372 2.858a1446.58 1446.58 0 0 1 3.328 4.02Zm-9.156-8.314c-.014-.178-.014-.27-.029-.36-.153-.976-.894-1.715-1.85-1.84-.908-.116-1.855.465-2.18 1.407-.602 1.739-1.171 3.492-1.75 5.24-1.267 3.805-2.534 7.61-3.791 11.418-.464 1.403.177 2.628 1.516 2.93 1.066.245 2.046-.403 2.462-1.661 1.807-5.443 3.61-10.885 5.412-16.332.095-.289.157-.586.21-.802Z"/><path fill="#000" d="M53.988 14.736H41.544V2.242c4.12 4.135 8.29 8.324 12.444 12.494Z"/></svg>
